azure-patterns/svg-self-paced-course.svg

<svg xmlns="http://www.w3.org/2000/svg" viewBox="0 0 24 18"><path d="M0 0h24v18H0zm22.5 16.5v-15h-21v15zM21 3v12H3V3zm-1.5 10.5v-9h-15v9zM9 6l6 3-6 3zm1.125 1.816v2.367L12.48 9z" fill="#969696"/></svg>

<svg xmlns="http://www.w3.org/2000/svg" viewBox="0 0 24 18">
                                
                            
  <path d="M0,0H24V18H0ZM22.5,16.5V1.5H1.5v15ZM21,3V15H3V3ZM19.5,13.5v-9H4.5v9ZM9,6l6,3L9,12Zm1.125,1.816v2.367L12.48,9Z" fill="#969696"></path>
</svg>
